src/images/socials/instagram.svg

<?xml version="1.0" ?><!DOCTYPE svg  PUBLIC '-//W3C//DTD SVG 1.1//EN'  'http://www.w3.org/Graphics/SVG/1.1/DTD/svg11.dtd'><svg height="100%" style="fill-rule:evenodd;clip-rule:evenodd;stroke-linejoin:round;stroke-miterlimit:2;" version="1.1" viewBox="0 0 512 512" width="100%" xml:space="preserve" xmlns="http://www.w3.org/2000/svg" xmlns:serif="http://www.serif.com/" xmlns:xlink="http://www.w3.org/1999/xlink"><g><path d="M256,0c-69.526,0 -78.244,0.295 -105.549,1.541c-27.248,1.243 -45.858,5.57 -62.142,11.899c-16.834,6.542 -31.111,15.296 -45.342,29.528c-14.232,14.231 -22.986,28.508 -29.528,45.342c-6.329,16.283 -10.656,34.893 -11.899,62.141c-1.246,27.305 -1.54,36.023 -1.54,105.549c0,69.524 0.294,78.242 1.54,105.547c1.243,27.248 5.57,45.858 11.899,62.141c6.542,16.834 15.296,31.111 29.528,45.344c14.231,14.231 28.508,22.985 45.342,29.527c16.284,6.328 34.894,10.656 62.142,11.899c27.305,1.245 36.023,1.54 105.549,1.54c69.524,0 78.242,-0.295 105.547,-1.54c27.248,-1.243 45.858,-5.571 62.141,-11.899c16.834,-6.542 31.111,-15.296 45.344,-29.527c14.231,-14.233 22.985,-28.51 29.527,-45.344c6.328,-16.283 10.656,-34.893 11.899,-62.141c1.245,-27.305 1.54,-36.023 1.54,-105.547c0,-69.526 -0.295,-78.244 -1.54,-105.549c-1.243,-27.248 -5.571,-45.858 -11.899,-62.141c-6.542,-16.834 -15.296,-31.111 -29.527,-45.342c-14.233,-14.232 -28.51,-22.986 -45.344,-29.528c-16.283,-6.329 -34.893,-10.656 -62.141,-11.899c-27.305,-1.246 -36.023,-1.541 -105.547,-1.541Zm0,46.127c68.354,0 76.451,0.26 103.445,1.492c24.959,1.139 38.514,5.309 47.535,8.814c11.949,4.644 20.477,10.192 29.435,19.15c8.959,8.958 14.506,17.487 19.15,29.435c3.506,9.021 7.676,22.576 8.815,47.535c1.231,26.995 1.492,35.092 1.492,103.447c0,68.354 -0.261,76.451 -1.492,103.445c-1.139,24.959 -5.309,38.514 -8.815,47.535c-4.644,11.949 -10.191,20.477 -19.15,29.435c-8.958,8.959 -17.486,14.506 -29.435,19.15c-9.021,3.506 -22.576,7.676 -47.535,8.814c-26.99,1.232 -35.086,1.493 -103.445,1.493c-68.361,0 -76.455,-0.261 -103.447,-1.493c-24.959,-1.138 -38.514,-5.308 -47.535,-8.814c-11.949,-4.644 -20.477,-10.191 -29.436,-19.15c-8.958,-8.958 -14.506,-17.486 -19.149,-29.435c-3.506,-9.021 -7.676,-22.576 -8.815,-47.535c-1.232,-26.994 -1.492,-35.091 -1.492,-103.445c0,-68.355 0.26,-76.452 1.492,-103.447c1.139,-24.959 5.309,-38.514 8.815,-47.535c4.643,-11.948 10.191,-20.477 19.149,-29.435c8.959,-8.958 17.487,-14.506 29.436,-19.15c9.021,-3.505 22.576,-7.675 47.535,-8.814c26.995,-1.232 35.092,-1.492 103.447,-1.492Z" style="fill:url(#_Linear1);fill-rule:nonzero;"/><path d="M256,341.332c-47.129,0 -85.334,-38.205 -85.334,-85.332c0,-47.129 38.205,-85.334 85.334,-85.334c47.127,0 85.332,38.205 85.332,85.334c0,47.127 -38.205,85.332 -85.332,85.332Zm0,-216.792c-72.604,0 -131.46,58.856 -131.46,131.46c0,72.602 58.856,131.458 131.46,131.458c72.602,0 131.458,-58.856 131.458,-131.458c0,-72.604 -58.856,-131.46 -131.458,-131.46Z" style="fill:url(#_Linear2);fill-rule:nonzero;"/><path d="M423.372,119.346c0,16.967 -13.754,30.72 -30.72,30.72c-16.966,0 -30.72,-13.753 -30.72,-30.72c0,-16.966 13.754,-30.719 30.72,-30.719c16.966,0 30.72,13.753 30.72,30.719Z" style="fill:url(#_Linear3);fill-rule:nonzero;"/></g><defs><linearGradient gradientTransform="matrix(-149.618,494.3,-494.3,-149.618,300.81,-27.1283)" gradientUnits="userSpaceOnUse" id="_Linear1" x1="0" x2="1" y1="0" y2="0"><stop offset="0" style="stop-color:#515bd4;stop-opacity:1"/><stop offset="0.26" style="stop-color:#9510b8;stop-opacity:1"/><stop offset="0.66" style="stop-color:#e51804;stop-opacity:1"/><stop offset="1" style="stop-color:#feda77;stop-opacity:1"/></linearGradient><linearGradient gradientTransform="matrix(-149.618,494.3,-494.3,-149.618,300.81,-27.1283)" gradientUnits="userSpaceOnUse" id="_Linear2" x1="0" x2="1" y1="0" y2="0"><stop offset="0" style="stop-color:#515bd4;stop-opacity:1"/><stop offset="0.26" style="stop-color:#9510b8;stop-opacity:1"/><stop offset="0.66" style="stop-color:#e51804;stop-opacity:1"/><stop offset="1" style="stop-color:#ffbf00;stop-opacity:1"/></linearGradient><linearGradient gradientTransform="matrix(-149.618,494.3,-494.3,-149.618,300.81,-27.1283)" gradientUnits="userSpaceOnUse" id="_Linear3" x1="0" x2="1" y1="0" y2="0"><stop offset="0" style="stop-color:#515bd4;stop-opacity:1"/><stop offset="0.26" style="stop-color:#9510b8;stop-opacity:1"/><stop offset="0.66" style="stop-color:#e51804;stop-opacity:1"/><stop offset="1" style="stop-color:#ffbf00;stop-opacity:1"/></linearGradient></defs></svg>

<svg width="512" height="512" viewBox="0 0 512 512" fill="none" xmlns="http://www.w3.org/2000/svg">
<g clip-path="url(#clip0_1103_692)">
<path d="M256 0C186.474 0 177.756 0.295 150.451 1.541C123.203 2.784 104.593 7.111 88.309 13.44C71.475 19.982 57.198 28.736 42.967 42.968C28.735 57.199 19.981 71.476 13.439 88.31C7.11 104.593 2.783 123.203 1.54 150.451C0.294 177.756 0 186.474 0 256C0 325.524 0.294 334.242 1.54 361.547C2.783 388.795 7.11 407.405 13.439 423.688C19.981 440.522 28.735 454.799 42.967 469.032C57.198 483.263 71.475 492.017 88.309 498.559C104.593 504.887 123.203 509.215 150.451 510.458C177.756 511.703 186.474 511.998 256 511.998C325.524 511.998 334.242 511.703 361.547 510.458C388.795 509.215 407.405 504.887 423.688 498.559C440.522 492.017 454.799 483.263 469.032 469.032C483.263 454.799 492.017 440.522 498.559 423.688C504.887 407.405 509.215 388.795 510.458 361.547C511.703 334.242 511.998 325.524 511.998 256C511.998 186.474 511.703 177.756 510.458 150.451C509.215 123.203 504.887 104.593 498.559 88.31C492.017 71.476 483.263 57.199 469.032 42.968C454.799 28.736 440.522 19.982 423.688 13.44C407.405 7.111 388.795 2.784 361.547 1.541C334.242 0.295 325.524 0 256 0ZM256 46.127C324.354 46.127 332.451 46.387 359.445 47.619C384.404 48.758 397.959 52.928 406.98 56.433C418.929 61.077 427.457 66.625 436.415 75.583C445.374 84.541 450.921 93.07 455.565 105.018C459.071 114.039 463.241 127.594 464.38 152.553C465.611 179.548 465.872 187.645 465.872 256C465.872 324.354 465.611 332.451 464.38 359.445C463.241 384.404 459.071 397.959 455.565 406.98C450.921 418.929 445.374 427.457 436.415 436.415C427.457 445.374 418.929 450.921 406.98 455.565C397.959 459.071 384.404 463.241 359.445 464.379C332.455 465.611 324.359 465.872 256 465.872C187.639 465.872 179.545 465.611 152.553 464.379C127.594 463.241 114.039 459.071 105.018 455.565C93.069 450.921 84.541 445.374 75.582 436.415C66.624 427.457 61.076 418.929 56.433 406.98C52.927 397.959 48.757 384.404 47.618 359.445C46.386 332.451 46.126 324.354 46.126 256C46.126 187.645 46.386 179.548 47.618 152.553C48.757 127.594 52.927 114.039 56.433 105.018C61.076 93.07 66.624 84.541 75.582 75.583C84.541 66.625 93.069 61.077 105.018 56.433C114.039 52.928 127.594 48.758 152.553 47.619C179.548 46.387 187.645 46.127 256 46.127Z" fill="#FC4A6E"/>
<path d="M256 341.332C208.871 341.332 170.666 303.127 170.666 256C170.666 208.871 208.871 170.666 256 170.666C303.127 170.666 341.332 208.871 341.332 256C341.332 303.127 303.127 341.332 256 341.332ZM256 124.54C183.396 124.54 124.54 183.396 124.54 256C124.54 328.602 183.396 387.458 256 387.458C328.602 387.458 387.458 328.602 387.458 256C387.458 183.396 328.602 124.54 256 124.54Z" fill="#FC4A6E"/>
<path d="M423.372 119.346C423.372 136.313 409.618 150.066 392.652 150.066C375.686 150.066 361.932 136.313 361.932 119.346C361.932 102.38 375.686 88.627 392.652 88.627C409.618 88.627 423.372 102.38 423.372 119.346Z" fill="#FC4A6E"/>
</g>
<defs>
<clipPath id="clip0_1103_692">
<rect width="512" height="512" fill="white"/>
</clipPath>
</defs>
</svg>
